X:1
T:Title
%%score { ( 1 4 5 ) | ( 2 3 ) }
L:1/8
M:2/4
K:F
V:1 treble nm="Grand Piano"
V:4 treble 
V:5 treble 
V:2 bass 
V:3 bass 
V:1
 z2 z z/[Q:1/4=100] A,/ | D>D D>E | F>F[K:bass] E>D | [A,^CE]4- | [A,CE]4 | E2 z2 | G2 F2 | %7
 [A,DF]4- | [A,DF]4 | B2 z2 | B2 G>B | A2 AG | F2 A2 | E>G F>E | D4- |[M:7/16] D/-D/-D/-D-<D | %16
[M:1/16] E/ |[M:2/4] F>E ^C>E | z2 z z/ F/ | G>F E>F | [A,^CE]4 | B2 z2 | [B,DG]4 | c2 z2 | %24
 [^CEA]4 | [FA]2 z2 | G>F E>F | D2 DE | [DF]2 D2 | E>D ^C>E | D4 |[M:1/16] A,/ |[M:2/4] D>D D>E | %33
 F>F[K:bass] E>D | [A,^CE]4- | [A,CE]4 | E2 z2 | G2 z2 | [A,DF]4- | [A,DF]4 | B2 z2 | B2 z2 | %42
 A2 AG | F2 A2 | E>G F>E | D4- | %46
[M:23/16] D/-D/-D/-D-<D z/ z/ z/ z/ z/ z/ z/ z/ z/ z/ z/ z/ z/ z/ z |] %47
V:2
 z4 | [D,F,A,]4 | [F,A,]2- [D,F,A,]2 | E,2 ^C,2 | B,,2 z z/ A,/ | z z/[K:treble] E/ E>F | %6
 z z/ G/ z z/ E/ | F,2 E,2 | D,2 z z/ D/ | z z/[K:treble] B/ B2 | z z/ B/ G,2 | [F,A,D]4 | %12
 [A,C]2- [F,A,C]2 | [G,^C]2- [A,,G,C]2 | A,4- |[M:7/16] A,/-A,/-A,/-A,-<A,- |[M:1/16] A,/ | %17
[M:2/4] [E,A,]2- [A,,E,A,]2 | A,4 | [A,^C]2- [G,A,C]2 | E,2 z z/ E/ | z z/[K:treble] B/ B>B | %22
 B,,2 z z/[K:treble] d/ | z z/ B/ A>B | A,,2 z z/[K:treble] A/ | z z/ G/ F2 | [E,A,^C]4 | G,2 z2 | %28
 [A,,F,]4 | [^C,G,A,]4 | [D,F,A,]4 |[M:1/16] z/ |[M:2/4] [D,F,A,]4 | [F,A,]4 | E,2 ^C,2 | %35
 B,,2 z z/ A,/ | z z/[K:treble] E/ E>F | z z/ G/ z z/ E/ | F,2 E,2 | D,2 z z/ D/ | %40
 z z/[K:treble] B/ B2 | z z/ B/ G,2 | [F,A,D]4 | [A,C]2- [F,A,C]2 | [G,^C]2- [A,,G,C]2 | %45
 [D,F,A,]4- | %46
[M:23/16] [D,F,A,]/-[D,F,A,]/-[D,F,A,]/-[D,F,A,]-<[D,F,A,] z/ z/ z/ z/ z/ z/ z/ z/ z/ z/ z/ z/ z/ z/ z |] %47
V:3
 x4 | x4 | A,,2 z2 | x4 | z2 A,,2 | G,,4[K:treble] | A,,2 E,2 | x4 | z2 C,2 | [B,,G,]4[K:treble] | %10
 D,2 z2 | x4 | D,2 z2 | E,2 z2 | [D,F,]4- |[M:7/16] [D,F,]/-[D,F,]/-[D,F,]/-[D,F,]-<[D,F,] | %16
[M:1/16] x/ |[M:2/4] ^C,2 z2 | [D,F,]2 z2 | E,2 z2 | z2 ^C,2 | G,,4[K:treble] | z2 D,2[K:treble] | %23
 E,4 | z2 ^C,2[K:treble] | D,4 | x4 | [D,A,]2- [D,F,A,]2 | x4 | x4 | x4 |[M:1/16] x/ |[M:2/4] x4 | %33
 A,,2 D,2 | x4 | z2 A,,2 | G,,4[K:treble] | A,,2 E,2 | x4 | z2 C,2 | [B,,G,]4[K:treble] | D,2 z2 | %42
 x4 | D,2 z2 | E,2 z2 | x4 |[M:23/16] x23/2 |] %47
V:4
 x4 | x4 | x2[K:bass] x2 | x4 | x4 | [E,B,]4 | [A,^C]4 | x4 | x4 | D4 | [B,E]4 | x4 | x4 | x4 | %14
 x4 |[M:7/16] x7/2 |[M:1/16] x/ |[M:2/4] x4 | D4 | x4 | x4 | [B,E]4 | x4 | [CG]4 | x4 | %25
 A,3- A,/-[A,A]/ | x4 | x4 | x4 | x4 | x4 |[M:1/16] x/ |[M:2/4] x4 | x2[K:bass] x2 | x4 | x4 | %36
 [E,B,]4 | [A,^C]2- [A,CF]2 | x4 | x4 | D4 | [B,E]2- [B,-E-G]>[B,EB] | x4 | x4 | x4 | x4 | %46
[M:23/16] x23/2 |] %47
V:5
 x4 | x4 | x2[K:bass] x2 | x4 | x4 | x4 | x4 | x4 | x4 | x4 | x4 | x4 | x4 | x4 | x4 | %15
[M:7/16] x7/2 |[M:1/16] x/ |[M:2/4] x4 | z2 F,2 | x4 | x4 | x4 | x4 | x4 | x4 | x4 | x4 | x4 | x4 | %29
 x4 | x4 |[M:1/16] x/ |[M:2/4] x4 | x2[K:bass] x2 | x4 | x4 | x4 | x4 | x4 | x4 | x4 | x4 | x4 | %43
 x4 | x4 | x4 |[M:23/16] x23/2 |] %47

